X: 2
A:Adam de la Halle
T:He' Diex! Quant verrai
N: (written out)
M:3/4
L:1/4
Q:1/4=120
K:F lydian
%
V:1 clef=treble
V:2 clef=treble-8 middle=B,
V:3 clef=treble-8 middle=B,
%%MIDI program 1       70 bassoon
%%MIDI program 2       71 clarinet
%%MIDI program 3       72 piccolo
%
[V:1]        C2 ((3:2:2F/G)|      A2   ((3G/F/E/)| D2  ((3:2:2E/F)|      G ((3G/E/D/) B, | C3  ||
[V:2]        F2        F   |(3:2:2E/DE ((3E/D/C/)| B,2        C   |(3:2:2D/C  D       E  | F3  ||
[V:3]        F,2       F,  |      A,2     A,     | G,2        A,  |      G,2          G, | F,3 ||
w:    1.4.7.~Hé       Diex!      quant    ver-     rai  2.8.~Che-        li          que  j'aim.
%
[V:1]        C2 ((3:2:2F/G)|      A2   ((3G/F/E/)| D2  z|
[V:2]        F2        F   |(3:2:2E/DE ((3E/D/C/)| B,2 z|
[V:3]        F,2       F,  |      A,2     A,     | G,2 z|
w:  ~~~3.~~~~Cer-     tes         je      ne       sai.
%
[V:1]        C2 ((3:2:2F/G)|      A2   ((3G/F/E/)| D2  z|
[V:2]        F2        F   |(3:2:2E/DE ((3E/D/C/)| B,2 z|
[V:3]        F,2       F,  |      A,2     A,     | G,2 z|
w:    1.4.7.~Hé       Diex!      quant    ver-     rai
%
[V:1]        C2 ((3:2:2F/G)|      A2   ((3G/F/E/)| D2  ((3:2:2E/F)|      G ((3G/E/D/) B, | C3  ||
[V:2]        F2        F   |(3:2:2E/DE ((3E/D/C/)| B,2        C   |(3:2:2D/C  D       E  | F3  ||
[V:3]        F,2       F,  |      A,2     A,     | G,2        A,  |      G,2          G, | F,3 ||
w: ~~~5.~~~~~De       vir         son     cor      gai ~~6.~~Muir        tout         de  faim.
%
[V:1]        C2 ((3:2:2F/G)|      A2   ((3G/F/E/)| D2  ((3:2:2E/F)|      G ((3G/E/D/) B, | C3  ||
[V:2]        F2        F   |(3:2:2E/DE ((3E/D/C/)| B,2        C   |(3:2:2D/C  D       E  | F3  ||
[V:3]        F,2       F,  |      A,2     A,     | G,2        A,  |      G,2          G, | F,3 ||
w:    1.4.7.~Hé       Diex!      quant    ver-     rai  2.8.~Che-        li          que  j'aim.
